X:701
%%annotationfont Times 14
T:Jean's Reel
C:Joe Buchanan's Scottish Tome - Page 223.2
I:223 2
Z:Carl Allison
C:Bobby MacLeod
R:Reel
L:1/8
M:4/4
K:F
%%annotationfont Times 14
T:Jean's Reel
C:Joe Buchanan's Scottish Tome - Page 223.2
I:223 2
Z:Carl Allison
C:Bobby MacLeod
R:Reel
L:1/8
M:4/4
K:F
C2 | "F"F2 (FG) AFAc | fA ((3AAA) (dA)cA | "Gm"GFGA (GF) D2 | "Gm"GBAG FEDC |
"F"F2 (FG) AFAc | "F"fgaf "Bb"gfdf | "F"c2 Ac fdcA | "C7"GFEG "F"F2 |]
(Ac) | "F"fAcf AcfA | "F"cfAc fAcf | "C7"eccg ecgc | "C7"fefg acfg |
"F"afge "Dm"fedc | "Bb"d(efe) "F"dcAc | "Bb"d2 (cA) "F"fdcA | "C7"GFEG "F"F2 |]
(FG) | "F"ACCA CCAC | "F"FACF ACFA | "C7" !3!E!1!CCG ECGC | "C7"cC=Bc _BGEG |
w:|||(3rd position)
"F"!3!A!2!CCA CCC | "F"FACF ACFA | "C7"!3!E!1!CEG cCBc | "C7"!3!B!3!G!1!E!3!G "F"!2!F2 |
w:(2nd position)|||(1st position)
(Ac) | "F"fAcf AcfA | "F"cfAc fAcf | "C7"eccg ecgc | "C7"fefg acfg |
"F"afge fedc | "Bb"d(ef)e "F"dcAc | "Bb"d2 cA "F"fdcA | "C7"GFEG "F"F2 |

